X:1
T:Symphonie Fantastique (idée fixe)
C:Hector Berlioz
M:4/4
L:1/8
Q:1/4=112
K:C
% idée fixe — main melodic theme, 1st movement (Allegro agitato e appassionato assai)
% Range: C4–D5. Uppercase = C4 octave; lowercase = C5 octave.
C2 C2 |G2 A2 B2 c2 |d2 c2 B2 A2 |G4 E2 FG |A2 G2 F2 E2 |D4 C2 D2 |E2 G2 c4 |B2 A2 G2 F2 |E4 D4 |]
